X: 1
T: the Duke of Perth
B: RSCDS 1-8
R: march
N: Robert Bremner's Collection, 1757
N: SFT p.5
N: Allan's p.14
Z: John Chambers <jc:trillian.mit.edu>
M: C|
L: 1/4
K: G
B |\
"G"G/A/B/c/ dB | gB dB | gB dB | "Am"aA "D7"A/c/B/A/ |\
"G"G/A/B/c/ dB | gB dB | "Am"cA "D7"d>c | "G"BG G :|
|: f |\
"Em"g>a ge | "B7"a>b af | "Em"g>a ge | be "(B7)"ef |\
"Em"g>a ge | "D7"a>b af | "G"gd "D7"ed/c/ | "G"BG G :|
